src/images/telegram.svg

<svg width="30" height="30" viewBox="0 0 30 30" fill="none" xmlns="http://www.w3.org/2000/svg">
<g clip-path="url(#clip0_134_281)">
<path d="M14.93 4.08334e-05C10.9639 0.0185495 7.16654 1.60707 4.36862 4.41811C1.5707 7.22915 -4.31863e-05 11.0339 8.90544e-10 15C8.90551e-10 18.9783 1.58035 22.7936 4.3934 25.6066C7.20644 28.4197 11.0218 30 15 30C18.9782 30 22.7936 28.4197 25.6066 25.6066C28.4196 22.7936 30 18.9783 30 15C30 11.0218 28.4196 7.20648 25.6066 4.39344C22.7936 1.58039 18.9782 4.08334e-05 15 4.08334e-05C14.9767 -1.36111e-05 14.9533 -1.36111e-05 14.93 4.08334e-05ZM21.1325 9.03004C21.2575 9.02754 21.5338 9.05879 21.7138 9.20504C21.8334 9.30891 21.9096 9.45388 21.9275 9.61129C21.9475 9.72754 21.9725 9.99379 21.9525 10.2013C21.7275 12.5738 20.75 18.3288 20.2525 20.985C20.0425 22.11 19.6287 22.4863 19.2275 22.5225C18.3575 22.6038 17.6963 21.9475 16.8525 21.395C15.5325 20.5288 14.7862 19.99 13.505 19.145C12.0237 18.17 12.9838 17.6325 13.8275 16.7575C14.0488 16.5275 17.8863 13.0363 17.9613 12.72C17.97 12.68 17.9787 12.5325 17.8912 12.455C17.8037 12.3775 17.6738 12.4038 17.58 12.425C17.4475 12.455 15.3388 13.85 11.2538 16.6063C10.6538 17.0188 10.1125 17.2188 9.62625 17.2063C9.09125 17.1963 8.06125 16.905 7.295 16.6563C6.355 16.35 5.60875 16.1888 5.67375 15.67C5.7075 15.4 6.08 15.1238 6.79 14.8413C11.1625 12.9363 14.0775 11.68 15.5375 11.0738C19.7025 9.34129 20.5688 9.04004 21.1325 9.03004Z" fill="#A7A7A7"/>
</g>
<defs>
<clipPath id="clip0_134_281">
<rect width="30" height="30" fill="white"/>
</clipPath>
</defs>
</svg>

<svg width="30" height="30" fill="none" xmlns="http://www.w3.org/2000/svg"><g clip-path="url(#a)"><path d="M14.93 0a15 15 0 1 0 .14 30 15 15 0 0 0-.14-30zm6.203 9.03c.125-.002.4.029.58.175.12.104.197.249.214.406.02.117.046.383.026.59-.226 2.373-1.203 8.128-1.7 10.784-.21 1.125-.624 1.501-1.026 1.538-.87.08-1.53-.575-2.375-1.128-1.32-.866-2.066-1.405-3.347-2.25-1.481-.975-.521-1.512.322-2.387.222-.23 4.06-3.722 4.134-4.038.009-.04.018-.188-.07-.265-.087-.078-.217-.051-.311-.03-.132.03-2.241 1.425-6.326 4.181-.6.413-1.141.613-1.628.6-.535-.01-1.565-.301-2.331-.55-.94-.306-1.686-.467-1.621-.986.033-.27.406-.546 1.116-.829 4.372-1.905 7.288-3.161 8.747-3.767C19.702 9.34 20.57 9.04 21.132 9.03z" fill="#A7A7A7"/></g><defs><clipPath id="a"><path fill="#fff" d="M0 0h30v30H0z"/></clipPath></defs></svg>
